public/static/img/trade/close.svg

<svg width="20" height="20" viewBox="0 0 20 20" fill="none" xmlns="http://www.w3.org/2000/svg">
<g id="Frame" clip-path="url(#clip0_1534_8602)">
<path id="Vector" d="M15.8892 8.52393L15.4257 9.51133L18.0252 10.7305L10.0051 14.1663L1.98493 10.7305L4.58442 9.51133L4.12095 8.52391L0.10083 10.4081V15.7582L10.0051 20L19.9094 15.7582V10.408L15.8892 8.52393ZM10.0051 18.8111L1.19903 15.0328V11.5768L10.0051 15.3552L18.8111 11.5768V15.0328L10.0051 18.8111ZM8.18142 10.267H11.8187V5.31992H14.1865L9.99501 0L5.81364 5.3199H8.18142V10.267Z" fill="white"/>
</g>
<defs>
<clipPath id="clip0_1534_8602">
<rect width="20" height="20" fill="white"/>
</clipPath>
</defs>
</svg>

<svg width="20" height="20" fill="none" xmlns="http://www.w3.org/2000/svg"><g clip-path="url(#a)"><path d="m15.89 8.524-.464.987 2.6 1.22-8.02 3.435-8.021-3.436 2.6-1.219-.464-.987-4.02 1.884v5.35L10.005 20l9.904-4.242v-5.35l-4.02-1.884ZM10.004 18.81 1.2 15.033v-3.456l8.806 3.778 8.806-3.778v3.456l-8.806 3.778ZM8.18 10.266h3.638V5.32h2.367L9.995 0 5.814 5.32H8.18v4.947Z" fill="#fff"/></g><defs><clipPath id="a"><path fill="#fff" d="M0 0h20v20H0z"/></clipPath></defs></svg>
